64x64/apps/downloader-arrow.svg

<svg height="64" width="64" xmlns="http://www.w3.org/2000/svg"><path d="m6.148 35c-.228 0-4.576-.001-.215 4.02l23.189 20.8c.861.773 1.75 1.165 2.878 1.18 1.129-.015 2.017-.407 2.878-1.18l23.189-20.8c4.36-4.02.013-4.02-.215-4.02z" fill-rule="evenodd" opacity=".2"/><path d="m16.77 4c-1.152 0-2.77 1.241-2.77 2.783v29.217h36v-29.217c0-1.543-1.619-2.783-2.77-2.783z" fill="#58992d"/><path d="m6.148 34c-.228 0-4.576-.001-.215 4.02l23.189 20.8c.861.773 1.75 1.165 2.878 1.18 1.129-.015 2.017-.407 2.878-1.18l23.189-20.8c4.36-4.02.013-4.02-.215-4.02z" fill="#81d547" fill-rule="evenodd"/><g fill="#f4f4f7"><path d="m16.77 4c-1.151 0-2.77 1.24-2.77 2.781v1c0-1.541 1.619-2.781 2.77-2.781h30.46c1.151 0 2.77 1.24 2.77 2.781v-1c0-1.541-1.619-2.781-2.77-2.781z" opacity=".1"/><path d="m6.148 34c-.173 0-2.701.003-2.027 1.75.429-.748 1.897-.75 2.027-.75h51.704c.13 0 1.598.002 2.027.75.674-1.747-1.854-1.75-2.027-1.75z" fill-rule="evenodd" opacity=".2"/></g></svg>

<svg xmlns="http://www.w3.org/2000/svg" width="64" height="64" version="1"><path style="opacity:.2;fill-rule:evenodd" d="M6.148 35c-.228 0-4.576-.001-.215 4.02l23.189 20.8c.861.773 1.75 1.165 2.878 1.18 1.129-.015 2.017-.407 2.878-1.18l23.189-20.8C62.427 35 58.08 35 57.852 35H6.148z"/><path style="fill:#58992d" d="M16.77 4C15.618 4 14 5.241 14 6.783V36h36V6.783C50 5.24 48.381 4 47.23 4z"/><path style="fill:#81d547;fill-rule:evenodd" d="M6.148 34c-.228 0-4.576-.001-.215 4.02l23.189 20.8c.861.773 1.75 1.165 2.878 1.18 1.129-.015 2.017-.407 2.878-1.18l23.189-20.8C62.427 34 58.08 34 57.852 34H6.148z"/><path style="opacity:.1;fill:#f4f4f7" d="M16.77 4C15.619 4 14 5.24 14 6.781v1C14 6.24 15.619 5 16.77 5h30.46C48.381 5 50 6.24 50 7.781v-1C50 5.24 48.381 4 47.23 4H16.77z"/><path style="opacity:.2;fill:#f4f4f7;fill-rule:evenodd" d="M6.148 34c-.173 0-2.701.003-2.027 1.75.429-.748 1.897-.75 2.027-.75h51.704c.13 0 1.598.002 2.027.75.674-1.747-1.854-1.75-2.027-1.75H6.148z"/></svg>
